images/icons/catalog-plus.svg

<svg width="50" height="50" viewBox="0 0 50 50" fill="none" xmlns="http://www.w3.org/2000/svg"><circle opacity=".3" cx="25" cy="25" r="24" stroke="#000" stroke-width="2"/><g opacity=".3" clip-path="url(#a)"><path d="M33 24h-7v-7h-2v7h-7v2h7v7h2v-7h7v-2Z" fill="#000"/></g><defs><clipPath id="a"><path fill="#fff" d="M17 17h16v16H17z"/></clipPath></defs></svg>

<svg width="50" height="50" viewBox="0 0 50 50" fill="none" xmlns="http://www.w3.org/2000/svg">
<circle opacity="0.3" cx="25" cy="25" r="24" stroke="black" stroke-width="2"/>
<g opacity="0.3" clip-path="url(#clip0_4_292)">
<path d="M33 24H26V17H24V24H17V26H24V33H26V26H33V24Z" fill="black"/>
</g>
<defs>
<clipPath id="clip0_4_292">
<rect width="16" height="16" fill="white" transform="translate(17 17)"/>
</clipPath>
</defs>
</svg>
